packages/core/src/svgs/tokens/branded/CREO.svg

<svg width="24" height="24" viewBox="0 0 24 24" fill="none" xmlns="http://www.w3.org/2000/svg">
<path d="M12.2778 2V4.71129L6.49401 8.15598C6.29956 8.26709 6.16622 8.46711 6.16622 8.6949V15.2787C6.16622 15.5009 6.23288 15.6343 6.42179 15.7509L12.1278 19.1456C12.3222 19.2623 12.561 19.2623 12.7555 19.1456L17.8114 16.0621L20.0561 17.74L13.0722 21.8346C12.6833 22.0569 12.2056 22.0569 11.8166 21.8236L4.555 17.4177C4.36928 17.3041 4.21566 17.1449 4.1087 16.9554C4.00174 16.7657 3.945 16.552 3.94385 16.3343V7.58371C3.94385 7.13368 4.1772 6.71699 4.555 6.48919L12.2778 2ZM12.2778 5.24466V7.15035L8.55526 9.4005C8.43304 9.47826 8.38859 9.67272 8.38859 9.81714V14.1397L8.38304 14.2453C8.37191 14.3508 8.36637 14.4398 8.46082 14.4953L12.0833 16.6732C12.211 16.751 12.3666 16.7454 12.4944 16.6732L15.8057 14.6508L17.2669 15.7454L12.7 18.4289C12.4444 18.5789 12.1332 18.5733 11.8833 18.4233L7.13295 15.5342C7.00956 15.4606 6.90703 15.3565 6.83509 15.232C6.76314 15.1075 6.72415 14.9668 6.72181 14.8231V9.09492C6.72181 8.80046 6.88849 8.52822 7.13295 8.37265L12.2778 5.25023V5.24466ZM12.5556 14.223C13.0713 14.223 13.5659 14.0182 13.9305 13.6535C14.2952 13.2889 14.5002 12.7942 14.5002 12.2784C14.5002 11.7627 14.2952 11.2682 13.9305 10.9035C13.5659 10.5388 13.0713 10.3339 12.5556 10.3339C12.0398 10.3339 11.5452 10.5388 11.1805 10.9035C10.8158 11.2682 10.611 11.7627 10.611 12.2784C10.611 12.7942 10.8158 13.2889 11.1805 13.6535C11.5452 14.0182 12.0398 14.223 12.5556 14.223ZM18.667 8.80601C18.667 9.13756 18.5353 9.45558 18.3009 9.68996C18.0665 9.92435 17.7485 10.0561 17.417 10.0561C17.0854 10.0561 16.7674 9.92435 16.533 9.68996C16.2986 9.45558 16.1669 9.13756 16.1669 8.80601C16.1669 8.47447 16.2986 8.15651 16.533 7.92207C16.7674 7.68763 17.0854 7.55593 17.417 7.55593C17.7485 7.55593 18.0665 7.68763 18.3009 7.92207C18.5353 8.15651 18.667 8.47447 18.667 8.80601ZM15.6113 10.3339C15.7587 10.3339 15.9 10.2754 16.0041 10.1712C16.1083 10.0669 16.1669 9.92564 16.1669 9.77824C16.1669 9.63098 16.1083 9.48967 16.0041 9.38544C15.9 9.28125 15.7587 9.22271 15.6113 9.22271C15.4639 9.22271 15.3226 9.28125 15.2185 9.38544C15.1143 9.48967 15.0557 9.63098 15.0557 9.77824C15.0557 9.92564 15.1143 10.0669 15.2185 10.1712C15.3226 10.2754 15.4639 10.3339 15.6113 10.3339Z" fill="#39B0F4"/>
</svg>

<svg xmlns="http://www.w3.org/2000/svg" width="24" height="24" fill="none" viewBox="0 0 24 24">
    <path fill="#39B0F4" d="M12.278 2v2.711L6.494 8.156a.63.63 0 0 0-.328.539v6.584c0 .222.067.355.256.472l5.706 3.395a.61.61 0 0 0 .627 0l5.056-3.084 2.245 1.678-6.984 4.095a1.24 1.24 0 0 1-1.255-.011l-7.262-4.406a1.28 1.28 0 0 1-.611-1.084v-8.75c0-.45.233-.867.611-1.095zm0 3.245V7.15L8.555 9.4c-.122.078-.166.273-.166.417v4.323l-.006.105c-.011.106-.017.195.078.25l3.622 2.178a.4.4 0 0 0 .411 0l3.312-2.022 1.46 1.094L12.7 18.43a.8.8 0 0 1-.817-.006l-4.75-2.889a.84.84 0 0 1-.411-.71v-5.73a.87.87 0 0 1 .41-.721l5.146-3.123zm.278 8.978a1.944 1.944 0 1 0 0-3.888 1.944 1.944 0 0 0 0 3.888m6.111-5.417a1.25 1.25 0 1 1-2.5 0 1.25 1.25 0 0 1 2.5 0m-3.056 1.528a.555.555 0 1 0 0-1.11.555.555 0 0 0 0 1.11"/>
</svg>
